envolve-frontend/public/images/burgermenu.svg

<?xml version="1.0" encoding="iso-8859-1"?>
<!-- Generator: Adobe Illustrator 19.0.0, SVG Export Plug-In . SVG Version: 6.00 Build 0)  -->
<svg version="1.1" id="Capa_1" xmlns="http://www.w3.org/2000/svg" xmlns:xlink="http://www.w3.org/1999/xlink" x="0px" y="0px"
	 viewBox="0 0 512 512" style="enable-background:new 0 0 512 512;" xml:space="preserve">
<g>
	<g>
		<path d="M492,236H20c-11.046,0-20,8.954-20,20c0,11.046,8.954,20,20,20h472c11.046,0,20-8.954,20-20S503.046,236,492,236z"/>
	</g>
</g>
<g>
	<g>
		<path d="M492,76H20C8.954,76,0,84.954,0,96s8.954,20,20,20h472c11.046,0,20-8.954,20-20S503.046,76,492,76z"/>
	</g>
</g>
<g>
	<g>
		<path d="M492,396H20c-11.046,0-20,8.954-20,20c0,11.046,8.954,20,20,20h472c11.046,0,20-8.954,20-20
			C512,404.954,503.046,396,492,396z"/>
	</g>
</g>
<g>
</g>
<g>
</g>
<g>
</g>
<g>
</g>
<g>
</g>
<g>
</g>
<g>
</g>
<g>
</g>
<g>
</g>
<g>
</g>
<g>
</g>
<g>
</g>
<g>
</g>
<g>
</g>
<g>
</g>
</svg>

<svg width="512" height="512" viewBox="0 0 512 512" fill="none" xmlns="http://www.w3.org/2000/svg">
<path d="M492 236H20C8.954 236 0 244.954 0 256C0 267.046 8.954 276 20 276H492C503.046 276 512 267.046 512 256C512 244.954 503.046 236 492 236Z" fill="#F7F7F7"/>
<path d="M492 76H20C8.954 76 0 84.954 0 96C0 107.046 8.954 116 20 116H492C503.046 116 512 107.046 512 96C512 84.954 503.046 76 492 76Z" fill="#F7F7F7"/>
<path d="M492 396H20C8.954 396 0 404.954 0 416C0 427.046 8.954 436 20 436H492C503.046 436 512 427.046 512 416C512 404.954 503.046 396 492 396Z" fill="#F7F7F7"/>
</svg>
